X: 52
T:Mympwy Portheinon
T:The Porteynon Whim
M:2/4
L:1/16
Q:100
S:Cadw Twmpath Collection
A:Wales
Z:brian_martin12345@yahoo.com
K:G
B2Bc dedc|B2Bc dedc|B2G2 GABG|A2D2 D2dc|
B2Bc dedc|B2Bc dedc|BdGB| AcFA|GFGAG4:||
gfga gdBd|gfga gdBd|gfga b2g2|fefg afed|
edef gece|dcde dBGB|AGAB cAFA|GFGAG4:||
